X:1
T:Make Them Think of Jesus
T:Make Them Think of Jesus
T:Francisco  B.  DeLeone
T:Lenore Harpster, 1915
T:Public Domain Courtesy of the Cyber Hymnal™
T:Public Domain Courtesy of the Cyber Hymnal™
C:Francisco  B.  DeLeone
Z:Public Domain
Z:Courtesy of the Cyber Hymnal™
%%score ( 1 2 ) 3
L:1/8
Q:1/4=110
M:4/4
K:C
V:1 treble 
V:2 treble 
V:3 bass 
V:1
 [CE]3 [DF] [EG]2 [Ec]2 | [Fc]4 [FB]2 z2 | [FA]3 [FA] [GB]2 [FA]2 | [EG]6 z2 | %4
w: 1.~Would you live for|Je- sus,|tru- ly be His|own?|
w: 2.~Make them think of|Je- sus,|by your words of|love;|
w: 3.~Make them think of|Je- sus,|of His ten- der|care,|
w: 4.~Make them think of|Je- sus,|what- so- e’er you|do;|
 [CE]3 [DF] [EG]2 [Ee]2 | [Ge]4 [Gd]4 | [Dc]3 [DA] [DE]2 [D^F]2 | [DG]6 z2 | %8
w: Lead- ing oth- ers|to Him,|Christ the Ho- ly|One?|
w: Point them to the|Sav- ior,|our dear Lord a-|bove;|
w: Watch- ing o’er the|spar- rows|and the li- lacs|fair;|
w: Bring them un- to|Je- sus—|He de- pends on|you;|
 [Fd]3 [Fd] [Fc]2 [FB]2 | [Ec]4 [EG]4 | [Ec]3 [Ec] [EG]2 [E^G]2 | [FA]6 z2 | %12
w: Make them think of|Je- sus,|ev- ery- where you|go;|
w: Make them think of|Je- sus,|when they hear you|speak,|
w: Make them think of|Je- sus,|when they think of|you;|
w: Make them think of|Je- sus,|of His match- less|grace;|
 [FA]3 [FB] [Fd]2 [^Fc]2 | [Ge]4 [EG]4 | [^Fe]3 [FA] [FB]2 [Fc]2 | [Fd]6 z2 |: %16
w: Lift an- oth- er’s|bur- den—|He would do just|so!|
w: Voice so sym- pa-|thiz- ing,|com- fort- ing the|weak.|
w: Make them think of|Je- sus,|tru- est of the|true.|
w: By His blood re-|deemed they,|too, may see His|face.|
"^Refrain" [Ge]2 [Ge]2 [Ge]2 [Ge]2 | [Fe]4 [Fd]4 | [Fc]3 [FB] [FA]2 [FB]2 | [EG]6 z2 |1 %20
w: ||||
w: ||||
w: ||||
w: ||||
 [Ge]2 [Ge]2 [Ge]2 [Ge]2 | [Ge]4 [Gd]4 | [Dc]3 [DA] [DE]2 [D^F]2 | [DG]6 z2 :|2 %24
w: ||||
w: ||||
w: ||||
w: ||||
 [Ec]2 [Ec]2 [EG]3 [Gc] || [Fc]4 [D_A]4 |"^riten." G2 [^FA]2 [=FB]3 [Fc] | [Ec]6 z2 |] %28
w: ||||
w: ||||
w: ||||
w: ||||
V:2
 x8 | x8 | x8 | x8 | x8 | x8 | x8 | x8 | x8 | x8 | x8 | x8 | x8 | x8 | x8 | x8 |: x8 | x8 | x8 | %19
 x8 |1 x8 | x8 | x8 | x8 :|2 x8 || x8 | G2 x6 | x8 |] %28
V:3
 [C,G,]3 [C,G,] [C,G,]2 [C,G,]2 | [G,,G,]4 [G,,G,]2 z2 | [G,,G,]3 [G,,G,] [G,,G,]2 [G,,G,]2 | %3
w: ~ ~ ~ ~|~ ~|~ ~ ~ ~|
 [C,G,]6 z2 | [C,G,]3 [C,G,] [C,G,]2 [G,C]2 | [G,B,]4 [G,B,]4 | [D,C]3 [D,C] [D,C]2 [D,C]2 | %7
w: ~|~ ~ ~ ~|~ ~|~ ~ ~ ~|
 [G,,B,]6 z2 | [G,B,]3 [G,B,] [G,B,]2 [G,B,]2 | [C,G,]4 [C,G,]4 | [C,G,]3 [C,A,] [C,_B,]2 [C,B,]2 | %11
w: ~|~ ~ ~ ~|~ ~|~ ~ ~ ~|
 [F,,A,]6 z2 | [F,C]3 [F,C] [F,C]2 [_A,C]2 | [G,C]4 [G,C]4 | [D,C]3 [D,C] [D,C]2 [D,C]2 | %15
w: ~|~ ~ ~ ~|~ ~|~ ~ ~ ~|
 [G,,B,]6 z2 |: [C,C]2 [C,B,]2 [C,G,]2 [C,G,]2 | [F,A,]4 [F,A,]4 | [G,B,]3 [G,B,] [G,B,]2 [G,B,]2 | %19
w: ~|Make them think of|Je- sus,|all a- long the|
 [C,C]6 z2 |1 [C,C]2 [C,B,]2 [C,A,]2 [^C,^A,]2 | [D,B,]4 [D,B,]4 | [D,C]3 [D,C] [D,C]2 [D,C]2 | %23
w: way,|Point some one to|Je- sus|ev- ery pass- ing|
 [G,,B,]6 z2 :|2 [C,_B,]2 [C,B,]2 [C,B,]3 [E,B,] || [F,A,]4 [^F,C]4 | [G,E]2 [G,_E]2 [G,D]3 [G,C] | %27
w: day;|Point some one to|Je- sus|ev- ery pass- ing|
 [C,C]6 z2 |] %28
w: day.|

